images/p2-logo.svg

<svg enable-background="new 0 0 121.02 82.2" viewBox="0 0 121.02 82.2" xmlns="http://www.w3.org/2000/svg"><path d="m26.91 1.14c10.37 0 18.03 2.23 22.99 6.7s7.44 10.75 7.44 18.85c0 4.77-.98 9.25-2.95 13.45s-5.22 7.61-9.76 10.22-10.71 3.92-18.5 3.92h-6.83v27.92h-19.3v-81.06zm-.68 15.78h-6.93v21.57h5.11c3.93 0 7.15-.87 9.65-2.61s3.75-4.62 3.75-8.63c0-6.89-3.86-10.33-11.58-10.33z" fill="#222638"/><path d="m121.02 82.2h-57.67v-13.06l20.09-20.32c4.09-4.24 7.34-7.72 9.76-10.44s4.14-5.13 5.17-7.21c1.02-2.08 1.53-4.29 1.53-6.64 0-2.88-.85-4.98-2.55-6.3s-3.84-1.99-6.41-1.99c-2.88 0-5.7.72-8.46 2.16s-5.77 3.52-9.03 6.24l-10.56-12.38c2.34-2.12 4.84-4.1 7.49-5.96 2.65-1.85 5.77-3.37 9.37-4.54s7.93-1.76 13-1.76c5.45 0 10.14.97 14.08 2.9 3.93 1.93 6.96 4.54 9.08 7.83s3.18 7.06 3.18 11.3c0 4.54-.87 8.67-2.61 12.37-1.74 3.71-4.31 7.38-7.72 11.01s-7.57 7.72-12.49 12.26l-8.4 7.72v.68h33.15z" fill="#cbdc53"/></svg>

<?xml version="1.0" encoding="utf-8"?>
<!-- Generator: Adobe Illustrator 24.0.2, SVG Export Plug-In . SVG Version: 6.00 Build 0)  -->
<svg version="1.1" id="Layer_1" xmlns="http://www.w3.org/2000/svg" xmlns:xlink="http://www.w3.org/1999/xlink" x="0px" y="0px"
	 viewBox="0 0 121.02 82.2" style="enable-background:new 0 0 121.02 82.2;" xml:space="preserve">
<style type="text/css">
	.st0{fill:#222638;}
	.st1{fill:#CBDC53;}
</style>
<g>
	<path class="st0" d="M26.91,1.14c10.37,0,18.03,2.23,22.99,6.7c4.96,4.47,7.44,10.75,7.44,18.85c0,4.77-0.98,9.25-2.95,13.45
		c-1.97,4.2-5.22,7.61-9.76,10.22c-4.54,2.61-10.71,3.92-18.5,3.92H19.3V82.2H0V1.14H26.91z M26.23,16.92H19.3v21.57h5.11
		c3.93,0,7.15-0.87,9.65-2.61c2.5-1.74,3.75-4.62,3.75-8.63C37.81,20.36,33.95,16.92,26.23,16.92z"/>
	<path class="st1" d="M121.02,82.2H63.35V69.14l20.09-20.32c4.09-4.24,7.34-7.72,9.76-10.44c2.42-2.72,4.14-5.13,5.17-7.21
		c1.02-2.08,1.53-4.29,1.53-6.64c0-2.88-0.85-4.98-2.55-6.3c-1.7-1.32-3.84-1.99-6.41-1.99c-2.88,0-5.7,0.72-8.46,2.16
		c-2.76,1.44-5.77,3.52-9.03,6.24L62.89,12.26c2.34-2.12,4.84-4.1,7.49-5.96c2.65-1.85,5.77-3.37,9.37-4.54
		C83.35,0.59,87.68,0,92.75,0c5.45,0,10.14,0.97,14.08,2.9c3.93,1.93,6.96,4.54,9.08,7.83c2.12,3.29,3.18,7.06,3.18,11.3
		c0,4.54-0.87,8.67-2.61,12.37c-1.74,3.71-4.31,7.38-7.72,11.01c-3.41,3.63-7.57,7.72-12.49,12.26l-8.4,7.72v0.68h33.15V82.2z"/>
</g>
</svg>
